X:1
T:Title
%%score { ( 1 3 ) | ( 2 4 ) }
L:1/8
M:3/4
K:G
V:1 treble nm="Grand Piano"
V:3 treble 
V:2 bass 
V:4 bass 
V:1
 z2 z2[Q:1/4=94] [DB]2 | [EA]3 [CEG] [B,DG][A,CF] | [G,B,G]4 [DFA]2 | B3 d cB | A4 [=FB]2 | %5
 [Ec]>[Ec] [Ec]B BA | A4 [EG]2 | [DF]3 [DA] [^CG][CE] |[M:2/4] D4 |[M:1/4] [DB]2 | %10
[M:3/4] [DB]3 [DGB] [DFA][DGB] | [DFd]2 [DFc]2 [DGB]2 | [DFA]3 [CFA] [B,G][DFA] | %13
 [DAc]2 [DGB]2 [D=FG]2 | [CEG]>[G,EG] [G,DG][G,B,G] AA | B2 d2 z A | [DGB]4 [CFA]2 | %17
[M:2/4] [B,G]4 |] %18
V:2
 z2 z2 [G,,G,]2 | [C,G,]3 A,, D,^D, | E,4 D,2 | [G,DG]3 [G,B,D][K:bass] [F,A,D][G,D] | %4
 [D,F,D]4 [G,,G,]2 | [C,G,]>[C,G,] [C,G,][E,^G,D] [E,G,D][A,C] | [A,C]4 [^C,A,]2 | %7
 [D,A,]3 [A,,F,] [A,,E,][A,,G,] |[M:2/4] [D,F,]4 |[M:1/4] [G,,G,]2 |[M:3/4] G,3 G, D,G, | %11
 A,2 A,2 G,2 | D,3 D, D,D, | G,2 G,2 B,,2 | C,>C, C,G,, [D,F,D][D,F,D] | %15
 [G,D]2 [G,B,G]2[K:bass] B,^C | D,4 D,2 |[M:2/4] G,,4 |] %18
V:3
 x6 | x6 | x6 | x6 | x6 | x6 | x6 | x6 |[M:2/4] x4 |[M:1/4] x2 |[M:3/4] x6 | x6 | x6 | x6 | x6 | %15
 z2 z2 G2 | x6 |[M:2/4] x4 |] %18
V:4
 x6 | x6 | x6 | x4[K:bass] x2 | x6 | x6 | x6 | x6 |[M:2/4] x4 |[M:1/4] x2 |[M:3/4] x6 | x6 | x6 | %13
 x6 | x6 | z2 z2[K:bass] E,2 | x6 |[M:2/4] x4 |] %18

